img/landing/xr.svg

<svg width="61" height="81" viewBox="0 0 61 81" fill="none" xmlns="http://www.w3.org/2000/svg">
<path d="M53.0164 49.685L46.5143 45.9303L40.0123 49.685L33.5102 45.9303L27.0082 42.1798L20.5061 38.4251L14.0041 34.6704L7.50205 38.4251L1 42.1798L7.50205 45.9303L14.0041 49.685L20.5061 53.4398L27.0082 57.1945L33.5102 60.9492L40.0123 64.6997L46.5143 60.9492L53.0164 57.1945L59.5184 53.4398L53.0164 49.685Z" stroke="#F6A5FE" stroke-width="1.21626" stroke-miterlimit="10" stroke-linejoin="round"/>
<path d="M33.5102 60.9495L27.0082 57.1948L20.5061 53.4401L14.0041 49.6854L7.50204 45.9307L1 42.1802V49.6854V57.1948L7.50204 60.9495L14.0041 64.7001L20.5061 68.4548L27.0082 72.2095L33.5102 75.9642L40.0123 79.7189V72.2095V64.7001L33.5102 60.9495Z" stroke="#F6A5FE" stroke-width="1.21626" stroke-miterlimit="10" stroke-linejoin="round"/>
<path d="M33.5102 30.9149L27.0082 27.1602L20.5061 23.4096L14.0041 19.6549L7.50204 15.9002L1 12.1455V19.6549V27.1602L7.50204 30.9149L14.0041 34.6696L20.5061 38.4243L27.0082 42.179L33.5102 45.9295L40.0123 49.6842V42.179V34.6696L33.5102 30.9149Z" stroke="#F6A5FE" stroke-width="1.21626" stroke-miterlimit="10" stroke-linejoin="round"/>
<path d="M53.0168 27.1607L46.5147 30.9154L40.0127 34.6701V42.1795V49.6847L46.5147 45.93L53.0168 42.1795L59.5188 38.4248V30.9154V23.4102L53.0168 27.1607Z" stroke="#F6A5FE" stroke-width="1.21626" stroke-miterlimit="10" stroke-linejoin="round"/>
<path d="M53.0168 57.1946L46.5147 60.9493L40.0127 64.6999V72.2093V79.7187L46.5147 75.964L53.0168 72.2093L59.5188 68.4546V60.9493V53.4399L53.0168 57.1946Z" stroke="#F6A5FE" stroke-width="1.21626" stroke-miterlimit="10" stroke-linejoin="round"/>
<path d="M53.0164 19.6556L46.5143 15.9009L40.0123 12.1462L33.5102 8.39147L27.0082 4.64093L20.5061 0.88623L14.0041 4.64093L7.50205 8.39147L1 12.1462L7.50205 15.9009L13.9874 19.6431L13.9666 19.6556L20.4687 23.4103H20.5061L27.0082 27.1608L33.5102 30.9155L40.0123 34.6702L46.5143 30.9155L53.0164 27.1608L59.5184 23.4103L53.0164 19.6556Z" stroke="#F6A5FE" stroke-width="1.21626" stroke-miterlimit="10" stroke-linejoin="round"/>
</svg>

<svg width="61" height="81" fill="none" xmlns="http://www.w3.org/2000/svg"><path d="m53.016 49.685-6.502-3.755-6.502 3.755-6.502-3.755-6.502-3.75-6.502-3.755-6.502-3.755-6.502 3.755L1 42.18l6.502 3.75 6.502 3.755 6.502 3.755 6.502 3.755 6.502 3.754 6.502 3.75 6.502-3.75 6.502-3.755 6.502-3.754-6.502-3.755Z" stroke="#F6A5FE" stroke-width="1.216" stroke-miterlimit="10" stroke-linejoin="round"/><path d="m33.51 60.95-6.502-3.755-6.502-3.755-6.502-3.755-6.502-3.754L1 42.18v15.014l6.502 3.755 6.502 3.75 6.502 3.755 6.502 3.755 6.502 3.754 6.502 3.755V64.7l-6.502-3.75ZM33.51 30.915l-6.502-3.755-6.502-3.75-6.502-3.755L7.502 15.9 1 12.145V27.16l6.502 3.755 6.502 3.755 6.502 3.754 6.502 3.755 6.502 3.75 6.502 3.755V34.67l-6.502-3.754ZM53.017 27.16l-6.502 3.755-6.502 3.755v15.015l6.502-3.755 6.502-3.75 6.502-3.755V23.41l-6.502 3.75ZM53.017 57.195l-6.502 3.754-6.502 3.75v15.02l6.502-3.755 6.502-3.755 6.502-3.754V53.439l-6.502 3.756Z" stroke="#F6A5FE" stroke-width="1.216" stroke-miterlimit="10" stroke-linejoin="round"/><path d="M53.016 19.656 46.514 15.9l-6.502-3.755-6.502-3.755-6.502-3.75L20.506.886l-6.502 3.755-6.502 3.75L1 12.146l6.502 3.755 6.485 3.742-.02.013 6.502 3.754h.037l6.502 3.75 6.502 3.756 6.502 3.754 6.502-3.755 6.502-3.754 6.502-3.75-6.502-3.755Z" stroke="#F6A5FE" stroke-width="1.216" stroke-miterlimit="10" stroke-linejoin="round"/></svg>
